contributed-vectors/russian_culture.svg

<svg width="192" height="192" viewBox="0 0 192 192" fill="none" xmlns="http://www.w3.org/2000/svg">
<path fill-rule="evenodd" clip-rule="evenodd" d="M96 184C144.601 184 184 144.601 184 96C184 47.399 144.601 8 96 8C47.399 8 8 47.399 8 96C8 144.601 47.399 184 96 184Z" fill="white"/>
<path fill-rule="evenodd" clip-rule="evenodd" d="M90.1349 32.4961C87.1733 33.1167 85.1756 33.916 79.4989 36.751C71.0427 40.9745 63.9802 45.1479 53.9831 51.8294C48.7009 55.3593 46.4787 57.2831 44.196 60.301C40.3262 65.4172 38.5323 70.3496 37.8333 77.7956C36.6422 90.4832 36.7314 104.479 38.0789 116.366C38.804 122.764 41.8326 129.163 46.493 134.143C52.2897 140.338 80.1513 156.87 88.4518 159.04C93.933 160.473 99.8639 160.297 105.172 158.545C107.336 157.83 116.922 153.061 121.784 150.279C126.802 147.408 132.723 143.658 138.637 139.604C145.452 134.932 149.013 130.978 151.511 125.308C153.472 120.86 154.123 117.3 154.739 107.651C155.465 96.2993 154.6 77.0351 153.097 71.0543C151.96 66.5322 148.629 60.718 145.168 57.2143C140.963 52.9588 125.881 43.4695 112.973 36.9594C104.606 32.7392 101.996 31.9838 95.8414 32.0003C93.4823 32.0065 91.7544 32.1566 90.1349 32.4961ZM90.5778 40.698C87.8873 41.2854 85.9789 42.0984 79.4239 45.4501C70.4397 50.0435 56.4663 58.7935 53.282 61.8197C51.0492 63.9418 48.8997 66.8889 47.574 69.6457C45.0382 74.919 44.3582 80.399 44.3482 95.6392C44.3411 106.53 44.7888 113.535 45.7285 117.235C46.7123 121.11 49.506 126.001 52.5797 129.232C58.0431 134.973 82.4425 149.232 89.9915 151.095C93.1427 151.872 98.7833 151.874 101.925 151.099C107.963 149.608 124.007 140.747 135.57 132.515C138.828 130.197 140.573 128.428 142.61 125.38C146.246 119.94 147.121 116.044 147.727 102.606C148.126 93.7642 147.335 78.9578 146.222 74.4382C145.237 70.4369 142.25 65.2771 139.084 62.1066C134.02 57.0354 110.387 43.2994 102.874 41.0605C99.9075 40.1765 93.7919 39.9963 90.5778 40.698ZM75.7895 59.7054C74.6318 59.9615 73.9322 60.4246 73.4362 61.2628C72.9091 62.1534 64.8941 91.9991 64.361 95.0566C63.7185 98.7401 63.9777 104.528 64.9532 108.284C67.6357 118.613 74.3267 127.145 83.9832 132.551L86.1915 133.787L89.1281 133.788C105.052 133.791 118.965 124.83 124.395 111.076C124.683 110.348 126.845 102.581 129.201 93.815C133.854 76.502 133.839 76.5883 132.519 75.1994C131.089 73.6947 125.041 70.4887 119.405 68.248C110.311 64.6317 97.3792 61.2864 87.946 60.1094C84.4276 59.6703 77.0551 59.4254 75.7895 59.7054ZM79.0806 67.809C77.8684 71.6442 71.7411 95.3838 71.5102 97.1384C70.9442 101.444 71.7448 106.709 73.6257 111.05C76.1352 116.844 81.3083 122.566 86.9474 125.786C88.346 126.584 88.3766 126.589 90.7833 126.425C98.9583 125.865 105.597 123.135 110.82 118.185C113.79 115.37 115.809 112.509 117.26 109.057C118.138 106.967 125.489 79.5705 125.267 79.2125C124.98 78.7487 118.227 75.6212 114.64 74.2909C103.723 70.2418 88.928 66.996 81.3875 66.996H79.3375L79.0806 67.809ZM83.8434 80.0238C83.2411 80.1418 82.261 80.474 81.6652 80.7617C79.6966 81.7128 78.9923 84.3087 80.2476 85.9868C81.4048 87.534 82.1981 87.7447 85.4756 87.3759C87.4502 87.1535 88.5195 87.5048 90.0793 88.8874C90.7465 89.4788 91.6481 90.0406 92.0827 90.1359C95.4156 90.8664 97.7852 87.3542 95.8748 84.5154C93.6392 81.193 88.2119 79.1667 83.8434 80.0238ZM104.364 85.889C102.684 86.3523 101.927 86.8806 101.318 88.0136C100.433 89.6604 100.971 91.6201 102.609 92.7118C103.439 93.2657 103.627 93.2877 106.136 93.1253C109.137 92.9312 109.648 93.0866 111.582 94.7804C113.047 96.0629 114.282 96.2661 115.818 95.4766C117.135 94.7999 117.899 93.6089 117.899 92.2318C117.899 90.1942 115.001 87.451 111.604 86.2722C109.51 85.5453 106.237 85.3722 104.364 85.889ZM80.8572 100.919C79.0608 101.834 78.378 103.88 79.2307 105.796C79.8954 107.29 82.0139 109.89 83.7552 111.351C87.8467 114.783 94.1741 116.69 99.331 116.044C102.938 115.593 107.363 113.783 108.282 112.385C109.319 110.805 108.816 108.185 107.299 107.264C105.878 106.402 105.027 106.421 102.918 107.362C100.335 108.516 99.3084 108.77 97.21 108.771C95.015 108.773 92.9753 108.267 90.7031 107.158C88.823 106.24 87.5542 105.095 86.1 103.005C85.5989 102.285 84.8916 101.474 84.5282 101.204C83.619 100.528 81.8906 100.393 80.8572 100.919Z" fill="url(#paint0_linear_1769_123)"/>
<defs>
<linearGradient id="paint0_linear_1769_123" x1="96" y1="57.7255" x2="96" y2="134.149" gradientUnits="userSpaceOnUse">
<stop stop-color="#9ABEFF"/>
<stop offset="1" stop-color="#FF837D"/>
</linearGradient>
</defs>
</svg>

<svg xmlns="http://www.w3.org/2000/svg" width="192" height="192" fill="none"><path fill="#fff" fill-rule="evenodd" d="M96 184c48.601 0 88-39.399 88-88S144.601 8 96 8 8 47.399 8 96s39.399 88 88 88Z" clip-rule="evenodd"/><path fill="url(#a)" fill-rule="evenodd" d="M90.135 32.496c-2.962.62-4.96 1.42-10.636 4.255-8.456 4.224-15.519 8.397-25.516 15.078-5.282 3.53-7.504 5.454-9.787 8.472-3.87 5.116-5.664 10.049-6.363 17.495-1.19 12.687-1.102 26.683.246 38.57.725 6.398 3.754 12.797 8.414 17.777 5.797 6.195 33.658 22.727 41.959 24.897 5.481 1.433 11.412 1.257 16.72-.495 2.164-.715 11.75-5.484 16.612-8.266 5.018-2.871 10.939-6.621 16.853-10.675 6.815-4.672 10.376-8.626 12.874-14.296 1.961-4.448 2.612-8.008 3.228-17.657.726-11.352-.139-30.616-1.642-36.597-1.137-4.522-4.468-10.336-7.929-13.84-4.205-4.255-19.287-13.745-32.195-20.255-8.367-4.22-10.977-4.975-17.132-4.959-2.359.007-4.087.157-5.706.496Zm.443 8.202c-2.69.587-4.6 1.4-11.154 4.752-8.984 4.593-22.958 13.343-26.142 16.37-2.233 2.122-4.382 5.069-5.708 7.826-2.536 5.273-3.216 10.753-3.226 25.993-.007 10.891.44 17.896 1.38 21.596.984 3.875 3.778 8.766 6.852 11.997 5.463 5.741 29.862 20 37.412 21.863 3.15.777 8.791.779 11.933.004 6.038-1.491 22.082-10.352 33.645-18.584 3.258-2.318 5.003-4.087 7.04-7.135 3.636-5.44 4.511-9.336 5.117-22.774.399-8.842-.392-23.648-1.505-28.168-.985-4.001-3.972-9.16-7.138-12.331-5.064-5.072-28.697-18.808-36.21-21.047-2.966-.884-9.082-1.064-12.296-.362ZM75.79 59.705c-1.158.257-1.858.72-2.354 1.558-.527.89-8.542 30.736-9.075 33.794-.643 3.683-.383 9.471.592 13.227 2.683 10.329 9.374 18.861 19.03 24.267l2.209 1.236 2.936.001c15.924.003 29.837-8.958 35.267-22.712.288-.728 2.45-8.495 4.806-17.261 4.653-17.313 4.638-17.227 3.318-18.616-1.43-1.504-7.478-4.71-13.114-6.951-9.094-3.616-22.026-6.962-31.459-8.139-3.518-.439-10.89-.684-12.156-.404Zm3.29 8.104c-1.212 3.835-7.339 27.575-7.57 29.33-.566 4.305.235 9.57 2.116 13.911 2.51 5.794 7.682 11.516 13.321 14.736 1.399.798 1.43.803 3.836.639 8.175-.56 14.814-3.29 20.037-8.24 2.97-2.815 4.989-5.676 6.44-9.128.878-2.09 8.229-29.487 8.007-29.844-.287-.464-7.04-3.592-10.627-4.922-10.917-4.05-25.712-7.295-33.252-7.295h-2.05l-.257.813Zm4.763 12.215c-.602.118-1.582.45-2.178.738-1.968.95-2.673 3.547-1.417 5.225 1.157 1.547 1.95 1.758 5.228 1.389 1.974-.223 3.043.129 4.603 1.511.668.592 1.57 1.154 2.004 1.249 3.333.73 5.702-2.782 3.792-5.62-2.236-3.323-7.663-5.35-12.032-4.492Zm20.521 5.865c-1.68.463-2.437.992-3.046 2.125-.885 1.646-.347 3.606 1.291 4.698.83.554 1.018.576 3.527.413 3.001-.194 3.512-.038 5.446 1.655 1.465 1.283 2.7 1.486 4.236.697 1.317-.677 2.081-1.868 2.081-3.245 0-2.038-2.898-4.781-6.295-5.96-2.094-.727-5.367-.9-7.24-.383Zm-23.507 15.03c-1.796.915-2.479 2.961-1.626 4.877.664 1.494 2.783 4.094 4.524 5.555 4.092 3.432 10.42 5.339 15.576 4.693 3.607-.451 8.032-2.261 8.951-3.659 1.037-1.58.534-4.2-.983-5.121-1.421-.862-2.272-.843-4.381.098-2.583 1.154-3.61 1.408-5.708 1.409-2.195.002-4.235-.504-6.507-1.613-1.88-.918-3.149-2.063-4.603-4.153-.501-.72-1.208-1.531-1.572-1.801-.909-.676-2.637-.811-3.67-.285Z" clip-rule="evenodd"/><defs><linearGradient id="a" x1="96" x2="96" y1="57.725" y2="134.149" gradientUnits="userSpaceOnUse"><stop stop-color="#9ABEFF"/><stop offset="1" stop-color="#FF837D"/></linearGradient></defs></svg>
